X:191 
T:Salt and Pepper Polka*, The
F:file ID: cre.4/191salt_p
S:BPC < Barrett < Collins
B:CRE4.080: gan ainm (BB setting)
L:1/8
M:2/4
Q:120
R:polka
K:G
A|B/c/d/B/ GB|B/c/d/B/ GB|A/B/A/G/ FA|GB d2|
B/c/d/B/ GB|B/c/d/B/ GB|A/B/A/G/ FA|G2 G:|
|:A|B>d ef|g2 g2|fe/f/ df|ed BA|
[1 B>d ef|g2 g2|fe/f/ af|e2 e:|
[2 B/c/d/B/ GB|B/c/d/B/ GB|c>d ef|g4-|g4||

%%%

